icon-svg/tomato-energy.svg

<svg xmlns="http://www.w3.org/2000/svg" viewBox="0 0 24 24"><path fill="#44739e" d="M20.214 9.191a1.54 1.54 0 0 0-.39-.577 1.6 1.6 0 0 0-.595-.38l-2.466-.901a.73.73 0 0 1-.435-.931l.815-2.24a1.608 1.608 0 0 0-1.269-2.143 1.6 1.6 0 0 0-.924.132 1.57 1.57 0 0 0-.821.905l-.821 2.266a.74.74 0 0 1-.932.44l-2.436-.86a1.643 1.643 0 0 0-2.084.871 1.6 1.6 0 0 0 .934 2.14l1.675.588-1.707 1.038a1.653 1.653 0 0 0-.632 2.165 1.58 1.58 0 0 0 .865.754l.119.037a1.58 1.58 0 0 0 1.286-.17l2.051-1.247a.56.56 0 0 1 .244-.08.6.6 0 0 1 .252.031.6.6 0 0 1 .214.137.6.6 0 0 1 .132.215l.745 2.218a1.65 1.65 0 0 0 1.568 1.13 1.7 1.7 0 0 0 .398-.047 1.6 1.6 0 0 0 .581-.3 1.6 1.6 0 0 0 .41-.5 1.6 1.6 0 0 0 .183-.624 1.6 1.6 0 0 0-.079-.642l-.653-1.991 1.664.6a1.6 1.6 0 0 0 .911.086 1.6 1.6 0 0 0 .809-.426 1.61 1.61 0 0 0 .391-1.7Zm-1.126.954a.54.54 0 0 1-.274.144.6.6 0 0 1-.338-.035l-1.8-.652a1 1 0 0 0-.544-.039 1 1 0 0 0-.492.265 1 1 0 0 0-.263.47 1 1 0 0 0 .023.543l.7 2.113a.6.6 0 0 1 .028.224.5.5 0 0 1-.063.211.6.6 0 0 1-.147.18.5.5 0 0 1-.175.1.6.6 0 0 1-.443-.065.6.6 0 0 1-.276-.336l-.747-2.223a1.6 1.6 0 0 0-.379-.614 1.6 1.6 0 0 0-1.154-.482 1 1 0 0 0-.16.008 1.6 1.6 0 0 0-.685.226l-2.056 1.251a.5.5 0 0 1-.215.077.6.6 0 0 1-.28-.035.53.53 0 0 1-.29-.244.6.6 0 0 1-.038-.437.62.62 0 0 1 .276-.354l1.814-1.1a1 1 0 0 0 .374-.4.99.99 0 0 0-.1-1.048 1 1 0 0 0-.451-.327l-1.8-.631a.5.5 0 0 1-.188-.115.6.6 0 0 1-.128-.18.58.58 0 0 1-.005-.434.6.6 0 0 1 .311-.3.6.6 0 0 1 .452 0l2.447.865a1.785 1.785 0 0 0 2.265-1.068l.825-2.275a.5.5 0 0 1 .107-.181.5.5 0 0 1 .165-.123.6.6 0 0 1 .328-.048.57.57 0 0 1 .293.141.56.56 0 0 1 .148.605l-.817 2.246a1.78 1.78 0 0 0 1.065 2.252l2.466.9a.6.6 0 0 1 .208.133.7.7 0 0 1 .147.188.6.6 0 0 1 .021.32.56.56 0 0 1-.155.284m-.159 5.038a1.15 1.15 0 0 0-1.44.623 5.931 5.931 0 0 1-11.146-4.054 1.153 1.153 0 0 0-1.568-1.364 1.16 1.16 0 0 0-.6.6 8.23 8.23 0 0 0 4.924 10.518 8.24 8.24 0 0 0 10.555-4.939 1.14 1.14 0 0 0-.089-.838 1.16 1.16 0 0 0-.636-.546m-9.868 6.331"/></svg>

<?xml version="1.0" encoding="UTF-8"?>
<svg width="24px" fill="#44739e" height="24px" viewBox="0 0 24 24" version="1.1" xmlns="http://www.w3.org/2000/svg" xmlns:xlink="http://www.w3.org/1999/xlink">
            <path d="m 20.212,9.188 a 1.539,1.539 0 0 0 -0.39,-0.577 1.6,1.6 0 0 0 -0.594,-0.38 l -2.466,-0.9 A 0.731,0.731 0 0 1 16.327,6.4 L 17.142,4.16 A 1.608,1.608 0 0 0 15.874,2.018 1.607,1.607 0 0 0 14.95,2.15 1.573,1.573 0 0 0 14.129,3.055 L 13.308,5.32 A 0.739,0.739 0 0 1 12.377,5.76 L 9.941,4.9 A 1.643,1.643 0 0 0 7.858,5.771 1.6,1.6 0 0 0 8.791,7.91 L 10.466,8.498 8.76,9.536 A 1.653,1.653 0 0 0 8.128,11.7 1.584,1.584 0 0 0 8.992,12.454 l 0.119,0.037 a 1.583,1.583 0 0 0 1.286,-0.17 l 2.05,-1.246 a 0.559,0.559 0 0 1 0.244,-0.08 0.566,0.566 0 0 1 0.252,0.031 0.589,0.589 0 0 1 0.214,0.137 0.6,0.6 0 0 1 0.132,0.214 l 0.745,2.218 a 1.651,1.651 0 0 0 1.568,1.13 1.729,1.729 0 0 0 0.398,-0.047 1.571,1.571 0 0 0 0.58,-0.3 1.62,1.62 0 0 0 0.41,-0.5 1.577,1.577 0 0 0 0.183,-0.624 1.557,1.557 0 0 0 -0.079,-0.642 l -0.653,-1.99 1.664,0.6 a 1.614,1.614 0 0 0 0.911,0.085 1.6,1.6 0 0 0 0.808,-0.425 1.61,1.61 0 0 0 0.391,-1.7 z m -1.125,0.954 a 0.536,0.536 0 0 1 -0.274,0.144 0.6,0.6 0 0 1 -0.338,-0.035 l -1.8,-0.652 A 1,1 0 0 0 16.131,9.56 0.986,0.986 0 0 0 15.64,9.825 a 1.015,1.015 0 0 0 -0.263,0.47 1,1 0 0 0 0.023,0.543 l 0.7,2.112 a 0.56,0.56 0 0 1 0.027,0.224 0.53,0.53 0 0 1 -0.062,0.211 0.581,0.581 0 0 1 -0.147,0.18 0.522,0.522 0 0 1 -0.175,0.1 A 0.613,0.613 0 0 1 15.3,13.6 0.589,0.589 0 0 1 15.024,13.264 L 14.277,11.042 A 1.627,1.627 0 0 0 13.898,10.428 1.611,1.611 0 0 0 12.744,9.946 1.429,1.429 0 0 0 12.584,9.954 1.634,1.634 0 0 0 11.9,10.18 L 9.844,11.43 A 0.538,0.538 0 0 1 9.629,11.507 0.629,0.629 0 0 1 9.349,11.472 0.532,0.532 0 0 1 9.059,11.229 0.608,0.608 0 0 1 9.021,10.792 0.618,0.618 0 0 1 9.297,10.438 l 1.814,-1.1 a 0.981,0.981 0 0 0 0.374,-0.4 0.99,0.99 0 0 0 -0.1,-1.048 0.979,0.979 0 0 0 -0.451,-0.326 L 9.134,6.933 A 0.536,0.536 0 0 1 8.946,6.818 0.55,0.55 0 0 1 8.818,6.638 0.576,0.576 0 0 1 8.813,6.204 a 0.59,0.59 0 0 1 0.311,-0.3 0.613,0.613 0 0 1 0.452,0 l 2.447,0.865 a 1.785,1.785 0 0 0 2.264,-1.068 l 0.825,-2.274 a 0.523,0.523 0 0 1 0.107,-0.181 0.5,0.5 0 0 1 0.165,-0.123 0.581,0.581 0 0 1 0.328,-0.048 0.574,0.574 0 0 1 0.293,0.141 0.564,0.564 0 0 1 0.147,0.605 L 15.336,6.066 A 1.779,1.779 0 0 0 16.4,8.317 l 2.466,0.9 a 0.567,0.567 0 0 1 0.208,0.133 0.646,0.646 0 0 1 0.147,0.188 v 0 a 0.585,0.585 0 0 1 0.021,0.32 0.565,0.565 0 0 1 -0.155,0.284 z m -0.159,5.036 a 1.151,1.151 0 0 0 -1.44,0.623 5.929,5.929 0 0 1 -11.143,-4.053 1.153,1.153 0 0 0 -1.567,-1.363 1.163,1.163 0 0 0 -0.6,0.6 A 8.23,8.23 0 0 0 9.1,21.5 v 0 A 8.237,8.237 0 0 0 19.653,16.562 1.139,1.139 0 0 0 19.564,15.724 1.155,1.155 0 0 0 18.928,15.178 Z M 9.1,21.5 Z m -0.038,0.008 v 0 -10e-4 z"/>

</svg>
